flaticon/interaction/image-10.svg

<svg xmlns="http://www.w3.org/2000/svg" width="32" height="32" viewBox="0 0 24 24">
    <path d="M18.035156 15.121094C17.921875 15.109375 17.808594 15.097656 17.695312 15.097656 17.492188 15.097656 17.292969 15.121094 17.101562 15.160156 15.203125 15.40625 13.449219 16.632812 12.113281 18.675781L11.917969 18.96875 12.066406 19.195312C13.570312 21.492188 15.597656 22.757812 17.769531 22.757812 19.945312 22.757812 21.96875 21.492188 23.472656 19.195312L23.667969 18.902344 23.519531 18.675781C22.066406 16.457031 20.125 15.203125 18.035156 15.121094zM19.726562 17.957031C19.726562 19.078125 18.816406 19.988281 17.695312 19.988281 16.574219 19.988281 15.664062 19.078125 15.664062 17.957031 15.664062 16.988281 16.347656 16.175781 17.257812 15.976562 17.441406 15.953125 17.628906 15.941406 17.816406 15.941406 17.828125 15.941406 17.835938 15.941406 17.847656 15.941406 18.894531 16.019531 19.726562 16.890625 19.726562 17.957031zM17.769531 21.929688C15.957031 21.929688 14.238281 20.882812 12.910156 18.96875 13.558594 18.023438 14.296875 17.285156 15.097656 16.773438 14.929688 17.132812 14.835938 17.535156 14.835938 17.957031 14.835938 19.535156 16.117188 20.816406 17.695312 20.816406 19.269531 20.816406 20.554688 19.535156 20.554688 17.957031 20.554688 17.453125 20.421875 16.984375 20.191406 16.570312 21.105469 17.070312 21.949219 17.855469 22.675781 18.902344 21.34375 20.859375 19.605469 21.929688 17.769531 21.929688zM8.925781 6.855469C8.925781 5.585938 7.890625 4.550781 6.621094 4.550781 5.351562 4.550781 4.316406 5.585938 4.316406 6.855469 4.316406 8.125 5.351562 9.160156 6.621094 9.160156 7.890625 9.160156 8.925781 8.125 8.925781 6.855469zM5.144531 6.855469C5.144531 6.042969 5.804688 5.378906 6.621094 5.378906 7.433594 5.378906 8.097656 6.042969 8.097656 6.855469 8.097656 7.671875 7.433594 8.332031 6.621094 8.332031 5.804688 8.332031 5.144531 7.671875 5.144531 6.855469zM2.585938 16.410156C2.667969 16.503906 2.78125 16.550781 2.898438 16.550781 2.992188 16.550781 3.089844 16.519531 3.167969 16.449219L9.917969 10.503906 14.183594 14.769531C14.34375 14.929688 14.605469 14.929688 14.769531 14.769531 14.929688 14.605469 14.929688 14.34375 14.769531 14.183594L12.777344 12.195312 16.578125 8.035156 21.238281 12.304688C21.40625 12.460938 21.667969 12.449219 21.820312 12.28125 21.976562 12.109375 21.964844 11.847656 21.796875 11.695312L16.832031 7.144531C16.75 7.070312 16.644531 7.03125 16.53125 7.035156 16.421875 7.039062 16.320312 7.089844 16.246094 7.167969L12.191406 11.609375 10.230469 9.644531C10.074219 9.492188 9.828125 9.484375 9.664062 9.628906L2.621094 15.828125C2.453125 15.976562 2.433594 16.238281 2.585938 16.410156zM2.585938 16.410156"/>
    <path d="M 23.585938 1.242188 L 0.414062 1.242188 C 0.183594 1.242188 0 1.425781 0 1.65625 L 0 19.863281 C 0 20.089844 0.183594 20.277344 0.414062 20.277344 L 9.929688 20.277344 C 10.160156 20.277344 10.34375 20.089844 10.34375 19.863281 C 10.34375 19.632812 10.160156 19.449219 9.929688 19.449219 L 0.828125 19.449219 L 0.828125 2.070312 L 23.171875 2.070312 L 23.171875 15.464844 C 23.171875 15.691406 23.359375 15.878906 23.585938 15.878906 C 23.816406 15.878906 24 15.691406 24 15.464844 L 24 1.65625 C 24 1.425781 23.816406 1.242188 23.585938 1.242188 Z M 23.585938 1.242188"/>
</svg>

<svg xmlns="http://www.w3.org/2000/svg" width="32" height="32" viewBox="0 0 24 24">
    <path d="M18.035 15.121a3.31 3.31 0 0 0-.34-.023c-.203 0-.402.023-.593.062-1.899.246-3.653 1.473-4.989 3.516l-.195.293.148.226c1.504 2.297 3.532 3.563 5.704 3.563 2.175 0 4.199-1.266 5.703-3.563l.195-.293-.148-.226c-1.454-2.219-3.395-3.473-5.485-3.555zm1.692 2.836a2.032 2.032 0 0 1-4.063 0c0-.969.684-1.781 1.594-1.98.183-.024.37-.036.558-.036h.032a2.028 2.028 0 0 1 1.879 2.016zM17.77 21.93c-1.813 0-3.532-1.047-4.86-2.961.649-.946 1.387-1.684 2.188-2.196-.168.36-.262.762-.262 1.184a2.86 2.86 0 0 0 2.86 2.86 2.863 2.863 0 0 0 2.859-2.86c0-.504-.133-.973-.364-1.387.914.5 1.758 1.285 2.485 2.332-1.332 1.957-3.07 3.028-4.906 3.028zm0 0M8.926 6.855A2.309 2.309 0 0 0 6.62 4.551a2.309 2.309 0 0 0-2.305 2.304A2.309 2.309 0 0 0 6.621 9.16a2.309 2.309 0 0 0 2.305-2.305zm-3.781 0c0-.812.66-1.476 1.476-1.476a1.48 1.48 0 0 1 1.477 1.476c0 .817-.664 1.477-1.477 1.477-.816 0-1.476-.66-1.476-1.477zm0 0M2.586 16.41a.41.41 0 0 0 .582.04l6.75-5.946 4.266 4.266c.16.16.421.16.586 0a.417.417 0 0 0 0-.586l-1.993-1.989 3.801-4.16 4.66 4.27a.414.414 0 0 0 .559-.61l-4.965-4.55a.417.417 0 0 0-.586.023l-4.055 4.441-1.96-1.964a.416.416 0 0 0-.567-.016l-7.043 6.2a.413.413 0 0 0-.035.581zm0 0"/>
    <path d="M23.586 1.242H.414A.412.412 0 0 0 0 1.656v18.207c0 .227.184.414.414.414H9.93a.414.414 0 0 0 0-.828H.828V2.07h22.344v13.395a.414.414 0 0 0 .828 0V1.656a.412.412 0 0 0-.414-.414zm0 0"/>
</svg>
